static/assets/images/exchanges/koi.svg

<svg width="256" height="256" viewBox="0 0 256 256" fill="none" xmlns="http://www.w3.org/2000/svg">
<path d="M0 64.0016C35.3437 64.0016 63.9998 35.3446 63.9998 0C63.9998 35.3446 92.6558 64.0016 128 64.0016C128 99.3459 99.3434 128.003 63.9998 128.003C28.6562 128.003 0 99.3459 0 64.0016Z" fill="white"/>
<path d="M192 0C192 35.3446 220.657 64.0016 256 64.0016C220.657 64.0016 192 92.6583 192 128.003C156.657 128.003 128 99.3459 128 64.0016C128 28.657 156.657 0 192 0Z" fill="white"/>
<path d="M256 191.998C220.657 191.998 192 220.655 192 256C192 220.655 163.344 191.998 128 191.998C128 156.654 156.657 128.003 192 128.003C227.344 128.003 256 156.654 256 191.998Z" fill="white"/>
<path d="M63.9998 256C63.9998 220.655 35.3437 191.998 0 191.998C35.3437 191.998 63.9998 163.348 63.9998 128.003C99.3434 128.003 128 156.654 128 191.998C128 227.343 99.3434 256 63.9998 256Z" fill="white"/>
</svg>

<svg xmlns="http://www.w3.org/2000/svg" fill="none" viewBox="0 0 256 256"><path fill="#fff" d="M0 64.002c35.344 0 64-28.657 64-64.002 0 35.345 28.656 64.002 64 64.002 0 35.344-28.657 64.001-64 64.001S0 99.346 0 64.002M192 0c0 35.345 28.657 64.002 64 64.002-35.343 0-64 28.656-64 64.001-35.343 0-64-28.657-64-64.001S156.657 0 192 0m64 191.998c-35.343 0-64 28.657-64 64.002 0-35.345-28.656-64.002-64-64.002 0-35.344 28.657-63.995 64-63.995s64 28.651 64 63.995M64 256c0-35.345-28.656-64.002-64-64.002 35.344 0 64-28.65 64-63.995 35.343 0 64 28.651 64 63.995C128 227.343 99.343 256 64 256"/></svg>
